X: 1
T: Teardrop Waltz
C: Kim Hyung Seok
N: From the Korean drama "Spring Waltz"
R: waltz
Z: 2007 John Chambers <jc@trillian.mit.edu> 
M: 3/4
L: 1/8
K: Am
[|"Dm"g2 f2 ^GA | "E"f2 e2 ^AB | "Am"d2 c2 ^DE | "Am/C"B2 A^G Ae |\
  "Dm"g2 f2 ^GA | "G"e2 d2 ^AB |  "C"a2 g2 ^f2 |    "C"g2 Bc eg |
| "Cdim"b2 a2 bc' | "B/F#"~b2 a2 f^f | "Em7"a2 g2 ab | "A7/C#"~a2 g2 e^f |\
  "F#7"g2 ^f2 e2 | c2 ^A2 ^FE | "B7"^D3 =E ^FA | "E"^G3 A B2 !Segno!|]
| "Dm"g2 f2 ^GA | "E"f2 e2 ^AB | "Am"d2 c2 ^DE | "Am/C"B2 A^G Ae |\
  "Dm"g2 f2 ^GA | "G"e2 d2 ^AB | "C"a2 g2 ^f2 | "C"g2 Bc eg |
| "F#dim7"b2 a2 bc' | "B7/F#"~b2 a2 f^f | "Em7"a2 g2 ab | "C#dim7"~a2 g2 e^f |\
  "F#7"g2 ^f2 e2 | "B"e4 ^d2 !Coda!| "E"e6 | "E"^G4 GB |]
[|"D7"[fA][eG] [fA]A ^GA | "G"_AG =A^A BG |\
  "C"e^d eG ^FG | "F"^GA Bc "C"ec |\
  "Bm7"ed d^c de | "/Bb"fe "E7"^de ^ge' |
  "Am7"[d'f][c'e] [c'e][bd] [bd][c'e] | "C"[bd][c'e] [bd][ac] "F"[^gB][ac] |\
| "Dm7"fe fc' bc' | "G"^ab g^f gd |\
  "C"e^d eb ab | "F"^ga fe dc | "Bb"ed d^c d2 |
  "Bm"ed d^c d2 | "B/F#"^dc BA ^AB |\
  "E"f2 e4 | "E9"[f'2d'2b2^g2] H[e'2^g2] "D.S."ef \
  !Coda!|] "E"e6 | [^G6E6] |]
